X:16015
T:Polly Put the Kettle On
R:Reel
C:Trad.
O:England, Gloucestershire
Z:Paul Hardy's Session Tunebook 2015 (see www.paulhardy.net). Creative Commons cc by-nc-sa licenced.
M:4/4
L:1/8
Q:1/4=150
K:G
"G"gfed "Em"efge|"G"dcBA "D"Bcd2|"G"gfed "Em"efge|"D"fgaf "G"g4:|
|:"G"gabg "D"afd2|"Em"efge "G"dB G2|"Am"ABcA "G"dBGB|"D"cAFA "G"G4:|
|:"G"BcdB "C"cde2|"Am"ABcA "G"Bcd2|"G"G3B "C"cBAG|"D"FGAF "G"G4:|

